svgs/1F913.svg

<svg xmlns="http://www.w3.org/2000/svg" xmlns:xlink="http://www.w3.org/1999/xlink" preserveAspectRatio="none" viewBox="0 0 72 72"><defs><path id="a" fill="#FCC21B" d="M127.95 93.45q0-27.05-8.55-47.15Q103.8 9.5 64 9.5q-39.85 0-55.45 36.8Q0 66.4 0 93.45q0 10.4 18.75 17.75 18.7 7.35 45.25 7.35 26.5 0 45.2-7.35 18.75-7.35 18.75-17.75z"/><path id="b" fill="#2F2F2F" d="M113.2 43.7q-17.05-3-29.4-1.3-.05 0-9.5 1.65Q68.7 45 64 45.1q-4.7-.1-10.3-1.05-9.5-1.65-9.55-1.65-12.35-1.7-29.4 1.3-1.35.25-1.65.55-.4.3-.6 1.6-.2 1.6-.2 4.85-.05 1.05.25 1.45.25.35 1.4.95 1.1.55 1.35 1 .45.7.45 2.5 0 12.2 5.3 17.9 4.5 4.9 13.2 5.25 8.25.3 14.8-4.05 6.35-4.25 9.25-11.65 2.1-5.5 3.25-7.65 1.35-2.55 2.45-2.7 1.05.1 2.4 2.7 1.15 2.15 3.25 7.65 2.9 7.4 9.3 11.65 6.5 4.35 14.8 4.05 8.7-.35 13.2-5.25 5.25-5.7 5.25-17.9 0-1.8.45-2.5.25-.45 1.35-1 1.15-.6 1.4-.95.3-.4.25-1.45 0-3.25-.2-4.85-.2-1.3-.6-1.6-.3-.3-1.65-.55m-22.4 2.6q5.65-.2 11.8 1.05 3.15.65 4.05 2.35.95 1.7.85 6.55-.15 8.3-3.05 12.65-3.4 5.1-10.9 5.4-9.45.35-14.6-5.95-2.85-3.5-6-12.6-.8-2.3-.05-3.6.85-1.5 4.15-3 5.7-2.5 13.75-2.85m-65.45 1.05q6.15-1.25 11.8-1.05 8.05.35 13.75 2.85 3.3 1.5 4.15 3 .75 1.3-.05 3.6-3.15 9.1-6 12.6-5.15 6.3-14.6 5.95-7.5-.3-10.9-5.4-2.9-4.35-3.05-12.65-.1-4.9.85-6.6.9-1.65 4.05-2.3z"/><path id="c" fill="#ED6C30" d="M91.75 84q-2.2-2.25-9.6-1Q70.1 85.05 64 85.05q-6.15 0-18.15-2.05-7.45-1.25-9.65 1-.75.8-.9 2.25-.15 1.55.55 2.65 2.6 4 9.6 7.4 8.5 4.15 18.5 4.3 10.05-.15 18.55-4.3 7-3.4 9.55-7.4.75-1.1.6-2.65-.15-1.45-.9-2.25z"/><path id="d" fill="#FFF" d="M35.95 47.8q-2.35 0-6.2-.5v3q0 .8.5 1.35.5.6 1.3.7l2 .3q.95.15 1.7-.5.69-.59.7-1.55.012.96.75 1.55.7.65 1.65.5l2-.3q.8-.1 1.3-.7.55-.55.55-1.35v-3q-3.9.5-6.25.5z"/><path id="e" fill="#2F2F2F" d="M33.75 58.4q.05 4 2.45 6.85 2.45 2.8 5.8 2.75 3.35 0 5.7-2.85 2.35-2.9 2.3-6.9-.05-4-2.45-6.85-2.4-2.85-5.75-2.8-3.35.05-5.75 2.9-2.35 2.9-2.3 6.9z"/><path id="f" fill="#2F2F2F" d="M86.1 68q3.35 0 5.7-2.85 2.4-2.85 2.4-6.85-.05-4-2.4-6.85-2.4-2.85-5.75-2.8-3.35 0-5.75 2.85t-2.4 6.85q.05 4 2.45 6.85 2.4 2.85 5.75 2.8z"/></defs><use transform="scale(.5625)" xlink:href="#a"/><use transform="scale(.5625)" xlink:href="#b"/><use transform="scale(.5625)" xlink:href="#c"/><use xlink:href="#d"/><use transform="scale(.5625)" xlink:href="#e"/><use transform="scale(.5625)" xlink:href="#f"/></svg>

<svg xmlns="http://www.w3.org/2000/svg" version="1.1" xmlns:xlink="http://www.w3.org/1999/xlink" preserveAspectRatio="none" x="0px" y="0px" width="72px" height="72px" viewBox="0 0 72 72">
<defs>
<g id="Layer0_0_FILL">
<path fill="#FCC21B" stroke="none" d="
M 127.95 93.45
Q 127.95 66.4 119.4 46.3 103.8 9.5 64 9.5 24.15 9.5 8.55 46.3 0 66.4 0 93.45 0 103.85 18.75 111.2 37.45 118.55 64 118.55 90.5 118.55 109.2 111.2 127.95 103.85 127.95 93.45 Z"/>
</g>

<g id="Layer0_1_FILL">
<path fill="#2F2F2F" stroke="none" d="
M 113.2 43.7
Q 96.15 40.7 83.8 42.4 83.75 42.4 74.3 44.05 68.7 45 64 45.1 59.3 45 53.7 44.05 44.2 42.4 44.15 42.4 31.8 40.7 14.75 43.7 13.4 43.95 13.1 44.25 12.7 44.55 12.5 45.85 12.3 47.45 12.3 50.7 12.25 51.75 12.55 52.15 12.8 52.5 13.95 53.1 15.05 53.65 15.3 54.1 15.75 54.8 15.75 56.6 15.75 68.8 21.05 74.5 25.55 79.4 34.25 79.75 42.5 80.05 49.05 75.7 55.4 71.45 58.3 64.05 60.4 58.55 61.55 56.4 62.9 53.85 64 53.7 65.05 53.8 66.4 56.4 67.55 58.55 69.65 64.05 72.55 71.45 78.95 75.7 85.45 80.05 93.75 79.75 102.45 79.4 106.95 74.5 112.2 68.8 112.2 56.6 112.2 54.8 112.65 54.1 112.9 53.65 114 53.1 115.15 52.5 115.4 52.15 115.7 51.75 115.65 50.7 115.65 47.45 115.45 45.85 115.25 44.55 114.85 44.25 114.55 43.95 113.2 43.7
M 90.8 46.3
Q 96.45 46.1 102.6 47.35 105.75 48 106.65 49.7 107.6 51.4 107.5 56.25 107.35 64.55 104.45 68.9 101.05 74 93.55 74.3 84.1 74.65 78.95 68.35 76.1 64.85 72.95 55.75 72.15 53.45 72.9 52.15 73.75 50.65 77.05 49.15 82.75 46.65 90.8 46.3
M 25.35 47.35
Q 31.5 46.1 37.15 46.3 45.2 46.65 50.9 49.15 54.2 50.65 55.05 52.15 55.8 53.45 55 55.75 51.85 64.85 49 68.35 43.85 74.65 34.4 74.3 26.9 74 23.5 68.9 20.6 64.55 20.45 56.25 20.35 51.35 21.3 49.65 22.2 48 25.35 47.35 Z"/>
</g>

<g id="Layer0_2_MEMBER_0_FILL">
<path fill="#ED6C30" stroke="none" d="
M 91.75 84
Q 89.55 81.75 82.15 83 70.1 85.05 64 85.05 57.85 85.05 45.85 83 38.4 81.75 36.2 84 35.45 84.8 35.3 86.25 35.15 87.8 35.85 88.9 38.45 92.9 45.45 96.3 53.95 100.45 63.95 100.6 74 100.45 82.5 96.3 89.5 92.9 92.05 88.9 92.8 87.8 92.65 86.25 92.5 84.8 91.75 84 Z"/>
</g>

<g id="Layer0_2_MEMBER_1_FILL">
<path fill="#FFFFFF" stroke="none" d="
M 35.95 47.8
Q 33.6 47.8 29.75 47.3
L 29.75 50.3
Q 29.75 51.1 30.25 51.65 30.75 52.25 31.55 52.35
L 33.55 52.65
Q 34.5 52.8 35.25 52.15 35.9390625 51.559375 35.95 50.6 35.96171875 51.559375 36.7 52.15 37.4 52.8 38.35 52.65
L 40.35 52.35
Q 41.15 52.25 41.65 51.65 42.2 51.1 42.2 50.3
L 42.2 47.3
Q 38.3 47.8 35.95 47.8 Z"/>
</g>

<g id="Layer0_3_MEMBER_0_FILL">
<path fill="#2F2F2F" stroke="none" d="
M 33.75 58.4
Q 33.8 62.4 36.2 65.25 38.65 68.05 42 68 45.35 68 47.7 65.15 50.05 62.25 50 58.25 49.95 54.25 47.55 51.4 45.15 48.55 41.8 48.6 38.45 48.65 36.05 51.5 33.7 54.4 33.75 58.4 Z"/>
</g>

<g id="Layer0_3_MEMBER_1_FILL">
<path fill="#2F2F2F" stroke="none" d="
M 86.1 68
Q 89.45 68 91.8 65.15 94.2 62.3 94.2 58.3 94.15 54.3 91.8 51.45 89.4 48.6 86.05 48.65 82.7 48.65 80.3 51.5 77.9 54.35 77.9 58.35 77.95 62.35 80.35 65.2 82.75 68.05 86.1 68 Z"/>
</g>
</defs>

<g id="Layer_1">
<g transform="matrix( 0.5625, 0, 0, 0.5625, 0,0) ">
<use xlink:href="#Layer0_0_FILL"/>
</g>

<g transform="matrix( 0.5625, 0, 0, 0.5625, 0,0) ">
<use xlink:href="#Layer0_1_FILL"/>
</g>

<g transform="matrix( 0.5625, 0, 0, 0.5625, 0,0) ">
<use xlink:href="#Layer0_2_MEMBER_0_FILL"/>
</g>

<g transform="matrix( 1, 0, 0, 1, 0,0) ">
<use xlink:href="#Layer0_2_MEMBER_1_FILL"/>
</g>

<g transform="matrix( 0.5625, 0, 0, 0.5625, 0,0) ">
<use xlink:href="#Layer0_3_MEMBER_0_FILL"/>
</g>

<g transform="matrix( 0.5625, 0, 0, 0.5625, 0,0) ">
<use xlink:href="#Layer0_3_MEMBER_1_FILL"/>
</g>
</g>
</svg>
